X:1
T:The Curlews
L:1/8
M:6/8
I:linebreak $
K:Bmin
V:1 treble 
V:1
 e | fBB FBB | fec a2 e | fed cAA | EAc afe | fBB FBB | fec a2 f | g2 e f2 e | dBA B2 ::$ A | %10
 Bcd BFF | DFF Bdf | ecB AEE | CEA cec | d3 BFF | DFF Bdf | ece fec |$ dBA B2 :| %18
